packages/icons/plugins/Trending.svg

<svg width="24" height="24" viewBox="0 0 24 24" xmlns="http://www.w3.org/2000/svg">
<g>
        <rect x="3" y="3" width="18" height="18" rx="2" fill="url(#paint0_linear_928_13580)" />
        <path
            d="M11.6516 9.71249C11.3914 10.2873 10.9731 10.5598 10.3968 10.5298C10.6981 10.8153 10.8707 11.1201 10.9146 11.4443C10.9585 11.7684 10.8412 12.127 10.5625 12.5198C10.4191 12.7199 10.2628 12.8786 10.0934 12.996C9.92408 13.1134 9.75094 13.1907 9.57403 13.228C9.39712 13.2652 9.20175 13.269 8.98791 13.2391C8.77408 13.2093 8.56279 13.156 8.35412 13.0794C8.14541 13.0027 7.9151 12.8996 7.66319 12.7701L7.00338 13.9129L6.31316 13.5144L6.96263 12.3895C6.72361 12.2515 6.5422 12.1448 6.41844 12.0693L5.76637 13.1988L5.07623 12.8003L5.73607 11.6574C5.68229 11.6264 5.60206 11.579 5.49534 11.5154C5.38862 11.4518 5.3069 11.4036 5.25016 11.3709L4.35377 10.8533L4.96624 10.1134L5.46375 10.4006C5.61313 10.4869 5.74378 10.4607 5.85565 10.3221L7.64106 7.22972C7.71954 7.0041 7.64522 6.82578 7.41813 6.69467L6.92062 6.40743L7.345 5.67239L8.29257 6.22546C8.48379 6.33587 8.62958 6.41806 8.72991 6.47197L9.38198 5.34255L10.0722 5.74104L9.43306 6.84806C9.68152 6.98353 9.8655 7.08579 9.98501 7.15479L10.619 6.05673L11.3092 6.45523L10.6571 7.58465C10.8811 7.74185 11.0708 7.89621 11.2264 8.04775C11.3819 8.19928 11.5119 8.36398 11.6164 8.54182C11.7209 8.71966 11.7768 8.90735 11.7843 9.10487C11.7917 9.30238 11.7475 9.50494 11.6516 9.71249ZM9.27772 11.5987C9.33984 11.4911 9.37263 11.3826 9.37611 11.2731C9.37958 11.1635 9.36398 11.0629 9.32933 10.9712C9.29464 10.8794 9.23506 10.7843 9.15056 10.6857C9.06606 10.5871 8.98415 10.503 8.90489 10.4333C8.8256 10.3636 8.72281 10.2863 8.59651 10.2015C8.47021 10.1166 8.36971 10.0526 8.29503 10.0095C8.22033 9.96636 8.1231 9.9122 8.00334 9.84707C7.88361 9.7819 7.81176 9.74246 7.78787 9.72867L6.91327 11.2435C6.93717 11.2573 6.99203 11.29 7.07778 11.3415C7.16359 11.393 7.23482 11.4352 7.29161 11.468C7.34839 11.5007 7.42884 11.5442 7.53301 11.5984C7.63718 11.6526 7.72802 11.6971 7.80554 11.7319C7.88305 11.7666 7.97551 11.8031 8.08302 11.8413C8.19046 11.8794 8.28547 11.9064 8.36799 11.9221C8.4505 11.9379 8.53957 11.9475 8.63521 11.9509C8.73083 11.9543 8.8157 11.9435 8.88985 11.9186C8.964 11.8937 9.03511 11.8551 9.10314 11.8028C9.17115 11.7504 9.22941 11.6824 9.27772 11.5987ZM10.1912 9.28164C10.2481 9.18306 10.2799 9.08486 10.2866 8.98711C10.2932 8.88937 10.2839 8.80029 10.2586 8.71994C10.2333 8.63957 10.1857 8.55637 10.1159 8.47024C10.0461 8.38412 9.97817 8.31206 9.91212 8.25396C9.84604 8.1959 9.76108 8.13088 9.65719 8.05896C9.55329 7.98703 9.46878 7.93326 9.40372 7.89768C9.33862 7.86206 9.25708 7.81697 9.1591 7.76244C9.06114 7.70786 9.00167 7.67455 8.98078 7.66249L8.1864 9.0384C8.20135 9.04702 8.25247 9.07755 8.33971 9.12991C8.427 9.18228 8.49646 9.22239 8.54812 9.25024C8.59977 9.27808 8.67621 9.31819 8.77737 9.37065C8.87855 9.42308 8.96544 9.46231 9.03809 9.4883C9.11074 9.51429 9.19716 9.54229 9.29739 9.57226C9.39761 9.60223 9.48601 9.61643 9.56263 9.61483C9.63926 9.61324 9.71779 9.60481 9.7983 9.58957C9.8788 9.57431 9.95238 9.54006 10.0189 9.48686C10.0854 9.43367 10.1429 9.36533 10.1912 9.28164Z"
            fill="white"
        />
        <rect x="18.1934" y="10.5371" width="0.225737" height="5.5986" fill="#FF306C" />
        <rect x="14.0293" y="10.5371" width="0.225737" height="6.22317" fill="#FF306C" />
        <rect x="16.1113" y="13.3984" width="0.225737" height="4.51266" fill="#30FF8F" />
        <rect x="11.9473" y="14.625" width="0.225737" height="4.93453" fill="#30FF8F" />
        <rect x="17.7109" y="11.623" width="1.1912" height="3.44246" fill="#FF306C" />
        <rect x="13.5469" y="11.7441" width="1.1912" height="3.8265" fill="#FF306C" />
        <rect x="15.6289" y="14.625" width="1.1912" height="2.21608" fill="#30FF8F" />
        <rect x="11.4648" y="15.8496" width="1.1912" height="2.64059" fill="#30FF8F" />
        <defs>
            <linearGradient id="paint0_linear_928_13580" x1="12" y1="3" x2="12" y2="21" gradient-units="userSpaceOnUse">
                <stop stop-color="#14008C" />
                <stop offset="1" stop-color="#45A3FB" />
            </linearGradient>
        </defs>
    </g>
</svg>

<svg xmlns="http://www.w3.org/2000/svg" width="24" height="24">
    <rect width="18" height="18" x="3" y="3" fill="url(#Trending_svg__a)" rx="2"/>
    <path fill="#fff" d="M11.652 9.712c-.26.575-.679.848-1.255.818.301.285.474.59.518.914.044.324-.074.683-.352 1.076-.144.2-.3.359-.47.476a1.425 1.425 0 0 1-.519.232 1.7 1.7 0 0 1-.586.011 3.062 3.062 0 0 1-.634-.16 6.237 6.237 0 0 1-.69-.309l-.66 1.143-.69-.399.649-1.124c-.24-.139-.42-.245-.545-.32l-.652 1.129-.69-.399.66-1.143a21.419 21.419 0 0 1-.24-.142 21.187 21.187 0 0 0-.246-.144l-.896-.518.612-.74.498.288c.15.086.28.06.392-.079L7.64 7.23c.079-.226.004-.404-.223-.535l-.497-.288.424-.735.948.553c.19.11.337.193.437.247l.652-1.13.69.399-.639 1.107c.249.136.433.238.552.307l.634-1.098.69.398-.652 1.13c.224.157.414.311.57.463.155.151.285.316.39.494.104.178.16.365.167.563.008.197-.037.4-.132.607ZM9.278 11.6a.69.69 0 0 0 .098-.326.777.777 0 0 0-.047-.302.982.982 0 0 0-.178-.285 2.517 2.517 0 0 0-.246-.253 3.045 3.045 0 0 0-.308-.232 5.55 5.55 0 0 0-.594-.354l-.215-.118-.875 1.514.165.098.214.127a6.818 6.818 0 0 0 .514.264c.077.035.17.071.277.11a1.754 1.754 0 0 0 .552.11.717.717 0 0 0 .255-.033.687.687 0 0 0 .388-.32Zm.913-2.317a.68.68 0 0 0 .096-.295.722.722 0 0 0-.028-.267.774.774 0 0 0-.143-.25 1.783 1.783 0 0 0-.204-.216 2.85 2.85 0 0 0-.255-.195 3.014 3.014 0 0 0-.253-.161 40.23 40.23 0 0 1-.423-.236l-.795 1.376.154.092a5.545 5.545 0 0 0 .437.24c.102.053.188.092.261.118.073.026.16.054.26.084.1.03.188.044.265.043a1.49 1.49 0 0 0 .235-.025.497.497 0 0 0 .22-.103.719.719 0 0 0 .173-.205Z"/>
    <path fill="#FF306C" d="M18.193 10.537h.226v5.599h-.226zm-4.164 0h.226v6.223h-.226z"/>
    <path fill="#30FF8F" d="M16.111 13.398h.226v4.513h-.226zm-4.164 1.227h.226v4.935h-.226z"/>
    <path fill="#FF306C" d="M17.711 11.623h1.191v3.442h-1.191zm-4.164.121h1.191v3.826h-1.191z"/>
    <path fill="#30FF8F" d="M15.629 14.625h1.191v2.216h-1.191zm-4.164 1.225h1.191v2.641h-1.191z"/>
    <defs>
        <linearGradient id="Trending_svg__a" x1="12" x2="12" y1="3" y2="21">
            <stop stop-color="#14008C"/>
            <stop offset="1" stop-color="#45A3FB"/>
        </linearGradient>
    </defs>
</svg>
